public/images/citylab-logo.svg

<svg width="180px" height="40px" viewBox="0 0 153 31" version="1.1" xmlns="http://www.w3.org/2000/svg" xmlns:xlink="http://www.w3.org/1999/xlink">
                    <g id="Page-1" stroke="none" stroke-width="1" fill="none" fill-rule="evenodd">
                        <g id="citylab-logo" fill-rule="nonzero">
                            <path d="M47.9092237,17.6991239 C46.930703,19.405883 45.6801985,20.25 43.2154313,20.25 C40.2798694,20.25 38.25,18.1944091 38.25,14.5973871 C38.25,11.0003651 40.1890931,9 43.5416048,9 C45.8251647,9 47.2206351,10.0461458 48,11.7896057 L45.354025,13.0926568 C45.0640931,12.0832117 44.6109017,11.4411235 43.4691217,11.4411235 C41.9649267,11.4411235 41.040941,12.6522479 41.040941,14.6707886 C41.040941,16.6529781 41.8744955,17.8088765 43.5416048,17.8088765 C44.3934527,17.8088765 45.1548694,17.3135914 45.5352326,16.3226714 L47.9092237,17.6991239 Z" id="Fill-1" fill="#2F2FA2"></path>
                            <path d="M49.7345993,20.25 L52.2149697,20.25 L52.2149697,11.638052 L49.7345993,11.638052 L49.7345993,20.25 Z M50.9749441,7.5 C51.8463134,7.5 52.5,8.00341092 52.5,9.04750931 C52.5,10.0539762 51.8463134,10.5758478 50.9749441,10.5758478 C50.1706032,10.5758478 49.5,10.0539762 49.5,9.04750931 C49.5,8.00341092 50.1706032,7.5 50.9749441,7.5 L50.9749441,7.5 Z" id="Fill-3" fill="#2F2FA2"></path>
                            <path d="M60,19.6972613 C59.2477645,20.0720916 58.3526522,20.25 57.2785173,20.25 C55.595365,20.25 54.4496212,19.4833636 54.4496212,17.4869851 L54.4496212,13.8327298 L53.25,13.8327298 L53.25,11.8000227 L54.4673529,11.8000227 L54.4673529,10.0531915 L57.1172265,9.75 L57.1172265,11.8000227 L59.570346,11.8000227 L59.570346,13.8327298 L57.0994949,13.8327298 L57.0994949,16.8806021 C57.0994949,17.7365324 57.439808,18.0040743 58.084289,18.0040743 C58.6032836,18.0040743 59.069083,17.8078317 59.5522734,17.4693301 L60,19.6972613 Z" id="Fill-5" fill="#2F2FA2"></path>
                            <path d="M64.6535108,14.7603897 C65.1050941,16.3724879 65.1956173,17.4469925 65.1956173,17.4469925 L65.2678981,17.4469925 C65.2678981,17.4469925 65.358077,16.3544089 65.8461449,14.7603897 L66.9307022,11.25 L69.75,11.25 L66.3703534,20.2768627 C65.3945618,22.8737528 64.2198256,23.25 62.4124599,23.25 C61.9064938,23.25 61.3100046,23.1602874 60.840179,23.053178 L61.255966,20.6889266 C61.5629877,20.8857486 61.9608766,20.993199 62.3584213,20.993199 C63.0812298,20.993199 63.5510555,20.7244024 63.8401789,19.9903281 L60.75,11.25 L63.6777192,11.25 L64.6535108,14.7603897 Z" id="Fill-6" fill="#2F2FA2"></path>
                            <polygon id="Fill-7" fill="#2F2FA2" points="73.9865523 9 73.9865523 17.1824354 78 17.1824354 78 19.5 71.25 19.5 71.25 9"></polygon>
                            <path d="M83.0955628,15.3106609 L85.5075045,15.3106609 L85.2129376,14.5087143 C84.5683972,12.7615437 84.347472,11.4421684 84.347472,11.4421684 L84.2738303,11.4421684 C84.2738303,11.4421684 83.9978492,12.7791987 83.3901296,14.4907198 L83.0955628,15.3106609 Z M86.3175633,17.5389316 L82.3219741,17.5389316 L81.6409635,19.5 L78.75,19.5 L82.6719476,9 L86.0415822,9 L90,19.5 L87.0357454,19.5 L86.3175633,17.5389316 Z" id="Fill-8" fill="#2F2FA2"></path>
                            <path d="M94.1556995,17.2360795 L95.8197265,17.2360795 C96.59897,17.2360795 97.0592329,17.0221819 97.0592329,16.2198958 C97.0592329,15.5602082 96.59897,15.2393617 95.8197265,15.2393617 L94.1556995,15.2393617 L94.1556995,17.2360795 Z M95.4835494,13.3139429 C96.2091798,13.3139429 96.6697797,13.0467406 96.6697797,12.3157537 C96.6697797,11.5314622 96.2270507,11.2639203 95.4302735,11.2639203 L94.1556995,11.2639203 L94.1556995,13.3139429 L95.4835494,13.3139429 Z M97.448686,14.1518786 C99.0064985,14.3837709 99.75,15.3999547 99.75,16.6480307 C99.75,18.3592123 98.5995116,19.5 96.0500266,19.5 L91.5,19.5 L91.5,9 L96.0854313,9 C98.1921875,9 99.3076083,9.99852873 99.3076083,11.638411 C99.3076083,12.9397917 98.5816406,13.7773879 97.448686,14.0805794 L97.448686,14.1518786 Z" id="Fill-9" fill="#2F2FA2"></path>
                            <path d="M111.116405,13.3139429 C111.891208,13.3139429 112.571365,13.0467406 112.571365,12.1731553 C112.571365,11.5134676 112.174427,11.2639203 111.43777,11.2639203 L110.152669,11.2639203 L109.774803,13.3139429 L111.116405,13.3139429 Z M109.037787,17.2360795 L110.814113,17.2360795 C111.701916,17.2360795 112.325573,16.9148936 112.325573,16.0949524 C112.325573,15.5602082 112.023281,15.2393617 111.191978,15.2393617 L109.415652,15.2393617 L109.037787,17.2360795 Z M112.911444,14.1342236 C114.536264,14.3661159 115.122135,15.3286555 115.122135,16.3444997 C115.122135,18.4838162 113.327096,19.5 110.606107,19.5 L105.75,19.5 L107.696545,9 L112.30686,9 C114.593124,9 115.5,9.98053417 115.5,11.3532141 C115.5,12.9394522 114.328618,13.8846763 112.930517,14.0625849 L112.911444,14.1342236 Z" id="Fill-10" fill="#2F2FA2"></path>
                            <path d="M121.689048,14.7574024 C121.707473,14.6460731 121.72555,14.5160122 121.72555,14.3672197 C121.72555,13.7550854 121.524619,13.2726586 120.813016,13.2726586 C120.082641,13.2726586 119.644973,13.9593658 119.444042,14.7574024 L121.689048,14.7574024 Z M121.506542,17.0585608 L124.098485,17.6894267 C123.605543,19.4335853 122.4375,20.25 120.064565,20.25 C117.637051,20.25 116.25,18.802366 116.25,16.5199392 C116.25,13.1242195 118.476582,11.25 120.92252,11.25 C123.368458,11.25 124.5,12.753122 124.5,14.3672197 C124.5,15.0542804 124.372072,15.7219027 124.134986,16.2046829 L119.152031,16.2046829 C118.933023,17.3367073 119.389116,18.1347439 120.283573,18.1347439 C120.904096,18.1347439 121.324035,17.8746221 121.506542,17.0585608 L121.506542,17.0585608 Z" id="Fill-11" fill="#2F2FA2"></path>
                            <path d="M132.090367,14.6580371 C130.846827,13.9922323 129.150732,14.1827727 128.830606,16.0273199 L128.095607,20.25 L125.25,20.25 L126.776342,11.4626815 L129.263781,11.4626815 L129.207436,13.8784877 C129.810006,12.0712516 131.260982,10.9301826 132.75,11.3297379 L132.090367,14.6580371 Z" id="Fill-12" fill="#2F2FA2"></path>
                            <path d="M135.631782,17.3613879 C135.559877,17.7536224 135.59583,18.0922007 136.135121,18.0922007 C136.296738,18.0922007 136.458696,18.0568826 136.674413,18.0032262 L136.24298,20.0180553 C135.793741,20.1606861 135.271912,20.25 134.822674,20.25 C133.186651,20.25 132.539501,19.4298732 132.809318,17.8425969 L134.535051,8.25 L137.25,8.25 L135.631782,17.3613879 Z" id="Fill-13" fill="#2F2FA2"></path>
                            <path d="M140.844028,7.5 C141.790199,7.5 142.5,7.99975123 142.5,9.03590678 C142.5,10.0350568 141.790199,10.553487 140.844028,10.553487 C139.970293,10.553487 139.242816,10.0350568 139.242816,9.03590678 C139.242816,7.99975123 139.970293,7.5 140.844028,7.5 L140.844028,7.5 Z M140.91681,17.2521975 C140.844028,17.6592586 140.880419,18.0106352 141.426633,18.0106352 C141.590221,18.0106352 141.754154,17.9739821 141.972501,17.9182975 L141.535461,20.0092877 C141.080744,20.1573099 140.552899,20.25 140.098182,20.25 C138.441864,20.25 137.787169,19.3988722 138.059929,17.7515963 L139.133296,11.6079691 L141.88135,11.6079691 L140.91681,17.2521975 Z" id="Fill-14" fill="#2F2FA2"></path>
                            <path d="M151.891259,17.1997968 C151.814794,17.6139732 151.853027,17.9714917 152.426513,17.9714917 C152.598377,17.9714917 152.770605,17.9341978 153,17.87754 L152.541211,20.0050801 C152.063487,20.1556896 151.508571,20.25 151.030847,20.25 C149.291089,20.25 148.602906,19.3839947 148.889831,17.7079249 L149.367554,14.9965933 C149.50155,14.2058929 149.34862,13.5658021 148.469274,13.5658021 C147.780726,13.5658021 147.207239,14.1685991 146.958547,15.5427325 L146.136367,20.1556896 L143.25,20.1556896 L144.798596,11.4569089 L147.321937,11.4569089 L147.360169,13.2269304 C147.914722,11.9467487 148.698305,11.25 150.170435,11.25 C151.566102,11.25 152.445448,12.1350108 152.445448,13.4718503 C152.445448,13.772711 152.426513,13.9799785 152.388281,14.2058929 L151.891259,17.1997968 Z" id="Fill-15" fill="#2F2FA2"></path>
                            <polygon id="Fill-16" fill="#F64C72" points="16.9519506 21.75 12 18.8574294 12.0942639 5.92812257 22.2025183 0 27 2.81231873 26.9803904 15.82398"></polygon>
                            <polygon id="Fill-17" fill="#393A61" points="12 4.10902312 10.4010027 5.06077558 10.3593016 10.8486887 4.68385222 14.227357 4.60831172 24.75 0 22.0177318 0.0936565357 8.97840501 10.13644 3"></polygon>
                            <polygon id="Fill-18" fill="#2F2FA2" points="10.6657637 12 10.6134245 19.2855499 16.7188605 22.8965374 21 20.3350698 20.9938019 24.7444735 10.9560397 30.75 6 27.8184479 6.09434828 14.7149"></polygon>
                        </g>
                    </g>
                </svg>

<svg width="180" height="40" viewBox="0 0 153 31" xmlns="http://www.w3.org/2000/svg"><g fill-rule="nonzero" fill="none"><path d="M47.91 17.7c-.98 1.706-2.23 2.55-4.695 2.55-2.935 0-4.965-2.056-4.965-5.653C38.25 11 40.19 9 43.542 9c2.283 0 3.679 1.046 4.458 2.79l-2.646 1.303c-.29-1.01-.743-1.652-1.885-1.652-1.504 0-2.428 1.211-2.428 3.23 0 1.982.833 3.138 2.5 3.138.852 0 1.614-.495 1.994-1.486l2.374 1.376ZM49.735 20.25h2.48v-8.612h-2.48v8.612Zm1.24-12.75c.871 0 1.525.503 1.525 1.548 0 1.006-.654 1.528-1.525 1.528-.804 0-1.475-.522-1.475-1.528 0-1.045.67-1.548 1.475-1.548ZM60 19.697c-.752.375-1.647.553-2.721.553-1.684 0-2.83-.767-2.83-2.763v-3.654H53.25V11.8h1.217v-1.747l2.65-.303v2.05h2.453v2.033H57.1v3.048c0 .856.34 1.123.984 1.123.52 0 .985-.196 1.468-.535L60 19.697ZM64.654 14.76c.451 1.612.542 2.687.542 2.687h.072s.09-1.093.578-2.687l1.085-3.51h2.819l-3.38 9.027c-.975 2.597-2.15 2.973-3.958 2.973-.506 0-1.102-.09-1.572-.197l.416-2.364c.307.197.705.304 1.102.304.723 0 1.193-.269 1.482-1.003l-3.09-8.74h2.928l.976 3.51ZM73.987 9v8.182H78V19.5h-6.75V9zM83.096 15.31h2.412l-.295-.801c-.645-1.747-.866-3.067-.866-3.067h-.073s-.276 1.337-.884 3.049l-.294.82Zm3.222 2.229h-3.996l-.681 1.961H78.75L82.672 9h3.37L90 19.5h-2.964l-.718-1.961ZM94.156 17.236h1.664c.779 0 1.24-.214 1.24-1.016 0-.66-.461-.98-1.24-.98h-1.664v1.996Zm1.328-3.922c.725 0 1.186-.267 1.186-.998 0-.785-.443-1.052-1.24-1.052h-1.274v2.05h1.328Zm1.965.838c1.557.232 2.301 1.248 2.301 2.496 0 1.711-1.15 2.852-3.7 2.852H91.5V9h4.585c2.107 0 3.223.999 3.223 2.638 0 1.302-.726 2.14-1.86 2.443v.07ZM111.116 13.314c.775 0 1.455-.267 1.455-1.14 0-.66-.397-.91-1.133-.91h-1.285l-.378 2.05h1.341Zm-2.078 3.922h1.776c.888 0 1.512-.321 1.512-1.141 0-.535-.303-.856-1.134-.856h-1.776l-.378 1.997Zm3.873-3.102c1.625.232 2.211 1.195 2.211 2.21 0 2.14-1.795 3.156-4.516 3.156h-4.856L107.697 9h4.61c2.286 0 3.193.98 3.193 2.353 0 1.586-1.171 2.532-2.57 2.71l-.019.071ZM121.689 14.757c.018-.11.037-.241.037-.39 0-.612-.201-1.094-.913-1.094-.73 0-1.168.686-1.369 1.484h2.245Zm-.182 2.302 2.591.63c-.492 1.745-1.66 2.561-4.033 2.561-2.428 0-3.815-1.448-3.815-3.73 0-3.396 2.227-5.27 4.673-5.27 2.445 0 3.577 1.503 3.577 3.117 0 .687-.128 1.355-.365 1.838h-4.983c-.219 1.132.237 1.93 1.132 1.93.62 0 1.04-.26 1.223-1.076ZM132.09 14.658c-1.243-.666-2.94-.475-3.26 1.37l-.734 4.222h-2.846l1.526-8.787h2.488l-.057 2.415c.603-1.807 2.054-2.948 3.543-2.548l-.66 3.328ZM135.632 17.361c-.072.393-.036.731.503.731.162 0 .324-.035.54-.089l-.432 2.015a4.93 4.93 0 0 1-1.42.232c-1.636 0-2.283-.82-2.014-2.407l1.726-9.593h2.715l-1.618 9.111ZM140.844 7.5c.946 0 1.656.5 1.656 1.536 0 1-.71 1.517-1.656 1.517-.874 0-1.601-.518-1.601-1.517 0-1.036.727-1.536 1.601-1.536Zm.073 9.752c-.073.407-.037.759.51.759.163 0 .327-.037.546-.093l-.438 2.091c-.454.148-.982.241-1.437.241-1.656 0-2.31-.851-2.038-2.498l1.073-6.144h2.748l-.964 5.644ZM151.891 17.2c-.076.414-.038.771.536.771.171 0 .344-.037.573-.093l-.459 2.127a5.276 5.276 0 0 1-1.51.245c-1.74 0-2.428-.866-2.141-2.542l.478-2.711c.134-.791-.02-1.431-.899-1.431-.688 0-1.262.603-1.51 1.977l-.823 4.613h-2.886l1.549-8.7h2.523l.038 1.77c.555-1.28 1.338-1.976 2.81-1.976 1.396 0 2.275.885 2.275 2.222 0 .3-.018.508-.057.734l-.497 2.994Z" fill="#2F2FA2"/><path fill="#F64C72" d="M16.952 21.75 12 18.857l.094-12.929L22.203 0 27 2.812l-.02 13.012z"/><path fill="#393A61" d="m12 4.109-1.599.952-.042 5.788-5.675 3.378-.076 10.523L0 22.018l.094-13.04L10.136 3z"/><path fill="#2F2FA2" d="m10.666 12-.053 7.286 6.106 3.61L21 20.337l-.006 4.408-10.038 6.006L6 27.818l.094-13.103z"/></g></svg>
